!!!OTL: Verschlafener Jaeger
!!!OTL-incipit:Es wollt ein Jaeger jagen
!!!ARE: Europa, Mitteleuropa, Deutschland
!!!YOR: 7, S. 215
!!    1856 gedruckt in Berlin
!!!SCT: Q0152F
!!!TXL: @@DE
!!!YEM: Copyright 1995, estate of Helmut Schaffrath.
**kern	**text
*ICvox	*
*M6/8	*
*k[f#]	*
*G:	*
!LO:TX:a:t=4	!
{(16gL	Es
16bJ)	.
=1	=1
(8.ddL	wollt
16ee)	.
8ddJ	ein
(8.bL	Jä-
16a)	.
8bJ	-ger
=2	=2
(4cc	ja-
8b)	.
4a}	-gen
{(16gL	drei
16bJ)	.
=3	=3
(8.ddL	Vier-
16ee)	.
8ddJ	-tel-
8.bL	-stun-
16a	-den
8bJ	vor
=4	=4
(4cc	Ta-
8b)	.
4a}	-gen
{8dd	ein
=5	=5
(8.bL	Hirsch-
16cc)	.
8bJ	-lein
8.aL	o-
16g	-der
8aJ	ein
=6	=6
(8.gL	Reh,
16a	.
8bJ	.
4a)}	.
{8dd	ein
=7	=7
(8.bL	Hirsch-
16cc)	.
8bL	-lein
8.aL	o-
16g	-der
8aJ	ein
=8	=8
4.g	Reh.
4r}	.
==	==
!!!AGN: Ballade, Verfuehrung, Versagen, Spott
!!!ONB: ESAC (Essen Associative Code) Database: BALLADE
!!!AMT: compound duple
!!!AIN: vox
!!!EED: Helmut Schaffrath
!!!EEV: 1.0
!!!source: Deutsche Volkslieder mit ihren Melodien Balladen. Herausgegeben vom Deutschen Volksliedarchiv. Siebenterer Band. Freiburg/Breisgau 1982.
!!!page: 215
!!!ENC: Anna Maria Matuszewska
!!!EEV: 2025/03/07
*-	*-
